resources/skins.minerva.icons.images/magnifying-glass.svg

<?xml version="1.0" encoding="UTF-8"?>
<svg width="24px" height="24px" viewBox="0 0 24 24" version="1.1" xmlns="http://www.w3.org/2000/svg" xmlns:xlink="http://www.w3.org/1999/xlink">
    <!-- Generator: Sketch 42 (36781) - http://www.bohemiancoding.com/sketch -->
    <title>icon-export</title>
    <desc>Created with Sketch.</desc>
    <defs></defs>
    <g id="Page-1" stroke="none" stroke-width="1" fill="none" fill-rule="evenodd">
        <g id="icon-export" fill="#54595D">
            <g id="SearchIcon">
                <path d="M16.4735179,15.4411986 C17.6205768,14.0647143 18.3088235,12.2294454 18.3088235,10.2794339 C18.3088235,5.80591599 14.7529297,2.25002217 10.2794118,2.25002217 C5.80588924,2.25002217 2.25,5.80591599 2.25,10.2794339 C2.25,14.7529565 5.80588924,18.3088457 10.2794118,18.3088457 C12,18.3088457 13.491165,17.8500291 14.7529297,16.9323613 L19.2264591,21.4058839 C19.6852712,21.8647005 20.4882238,21.8647005 21.0617532,21.4058839 L21.75,20.7176417 L16.4735179,15.4411986 Z M4.54411765,10.2794339 C4.54411765,7.0676807 7.06766082,4.54413982 10.2794118,4.54413982 C13.491165,4.54413982 16.0147059,7.0676807 16.0147059,10.2794339 C16.0147059,13.4911849 13.491165,16.0147281 10.2794118,16.0147281 C7.06766082,16.0147281 4.54411765,13.3765065 4.54411765,10.2794339 Z" id="Page-1"></path>
            </g>
        </g>
    </g>
</svg>

<?xml version="1.0" encoding="UTF-8"?>
<svg width="24" height="24" viewBox="0 0 24 24" xmlns="http://www.w3.org/2000/svg">
    <title>
        icon-export
    </title>
    <g id="Page-1" fill="none" fill-rule="evenodd">
        <g id="icon-export" fill="#54595D">
            <g id="SearchIcon">
                <path d="M16.474 15.441c1.147-1.376 1.835-3.212 1.835-5.162a7.98 7.98 0 0 0-8.03-8.029 7.98 7.98 0 0 0-8.029 8.03 7.98 7.98 0 0 0 8.03 8.029c1.72 0 3.211-.459 4.473-1.377l4.473 4.474c.46.459 1.262.459 1.836 0l.688-.688-5.276-5.277zM4.544 10.28c0-3.211 2.524-5.735 5.735-5.735 3.212 0 5.736 2.524 5.736 5.735 0 3.212-2.524 5.736-5.736 5.736-3.211 0-5.735-2.638-5.735-5.736z" id="Page-1"/>
            </g>
        </g>
    </g>
</svg>
